src/dsmComponents/Icons/location-crosshair-16px.svg

<?xml version="1.0" encoding="UTF-8"?>
<svg width="16px" height="16px" viewBox="0 0 16 16" version="1.1" xmlns="http://www.w3.org/2000/svg" xmlns:xlink="http://www.w3.org/1999/xlink">
    <!-- Generator: Sketch 59.1 (86144) - https://sketch.com -->
    <title>location-crosshair-16px</title>
    <desc>Created with Sketch.</desc>
    <defs>
        <path d="M8,9.33333333 C8.73637967,9.33333333 9.33333333,8.73637967 9.33333333,8 C9.33333333,7.26362033 8.73637967,6.66666667 8,6.66666667 C7.26362033,6.66666667 6.66666667,7.26362033 6.66666667,8 C6.66666667,8.73637967 7.26362033,9.33333333 8,9.33333333 Z M16,7.33333333 L14.6326667,7.33333333 C14.3193333,4.18866667 11.8113333,1.68066667 8.66666667,1.36733333 L8.66666667,0 L7.33333333,0 L7.33333333,1.36733333 C4.18866667,1.68066667 1.68066667,4.18866667 1.36733333,7.33333333 L0,7.33333333 L0,8.66666667 L1.36733333,8.66666667 C1.68133333,11.8113333 4.18866667,14.3193333 7.33333333,14.6326667 L7.33333333,16 L8.66666667,16 L8.66666667,14.6326667 C11.8113333,14.3186667 14.3193333,11.8113333 14.6326667,8.66666667 L16,8.66666667 L16,7.33333333 Z M8.66666667,13.2873333 L8.66666667,12 L7.33333333,12 L7.33333333,13.2873333 C4.92533333,12.9846667 3.01533333,11.0746667 2.71266667,8.66666667 L4,8.66666667 L4,7.33333333 L2.71266667,7.33333333 C3.01533333,4.92533333 4.92533333,3.01533333 7.33333333,2.71266667 L7.33333333,4 L8.66666667,4 L8.66666667,2.71266667 C11.0746667,3.01466667 12.9846667,4.92533333 13.2873333,7.33333333 L12,7.33333333 L12,8.66666667 L13.2873333,8.66666667 C12.9846667,11.0746667 11.0746667,12.9846667 8.66666667,13.2873333 Z" id="path-1"></path>
    </defs>
    <g id="Final" stroke="none" stroke-width="1" fill="none" fill-rule="evenodd">
        <g id="All-Nucleo-Icons" transform="translate(-319.000000, -3996.000000)">
            <g id="Solo/Nucleo/16px/location-crosshair" transform="translate(315.000000, 3992.000000)">
                <g id="crosshair" transform="translate(4.000000, 4.000000)">
                    <g id="Colour/Default-Colour">
                        <mask id="mask-2" fill="white">
                            <use xlink:href="#path-1"></use>
                        </mask>
                        <use id="Mask" fill="#000000" fill-rule="nonzero" xlink:href="#path-1"></use>
                        <g id="colour/neutral/chia" mask="url(#mask-2)" fill="#737373">
                            <g transform="translate(-13.333333, -13.333333)" id="Colour">
                                <rect x="0" y="0" width="43" height="43"></rect>
                            </g>
                        </g>
                    </g>
                </g>
            </g>
        </g>
    </g>
</svg>

<svg width="16" height="16" xmlns="http://www.w3.org/2000/svg" xmlns:xlink="http://www.w3.org/1999/xlink"><defs><path d="M8 9.333a1.333 1.333 0 100-2.666 1.333 1.333 0 000 2.666zm8-2h-1.367a6.677 6.677 0 00-5.966-5.966V0H7.333v1.367a6.677 6.677 0 00-5.966 5.966H0v1.334h1.367a6.677 6.677 0 005.966 5.966V16h1.334v-1.367a6.677 6.677 0 005.966-5.966H16V7.333zm-7.333 5.954V12H7.333v1.287a5.339 5.339 0 01-4.62-4.62H4V7.333H2.713a5.339 5.339 0 014.62-4.62V4h1.334V2.713a5.338 5.338 0 014.62 4.62H12v1.334h1.287a5.339 5.339 0 01-4.62 4.62z" id="location-crosshair-16px_svg__a"/></defs><use fill="#737373" xlink:href="#location-crosshair-16px_svg__a" fill-rule="evenodd"/></svg>
